www/assets/icons/zoom_in.svg

<svg width="24" height="24" viewBox="0 0 24 24" xmlns="http://www.w3.org/2000/svg" fill='currentColor'><path d="M15.755 14.2549H14.965L14.685 13.9849C15.665 12.8449 16.255 11.3649 16.255 9.75488C16.255 6.16488 13.345 3.25488 9.755 3.25488C6.165 3.25488 3.255 6.16488 3.255 9.75488C3.255 13.3449 6.165 16.2549 9.755 16.2549C11.365 16.2549 12.845 15.6649 13.985 14.6849L14.255 14.9649V15.7549L19.255 20.7449L20.745 19.2549L15.755 14.2549ZM9.755 14.2549C7.26501 14.2549 5.255 12.2449 5.255 9.75488C5.255 7.26488 7.26501 5.25488 9.755 5.25488C12.245 5.25488 14.255 7.26488 14.255 9.75488C14.255 12.2449 12.245 14.2549 9.755 14.2549Z"/><path d="M12.255 10.2549H10.255V12.2549H9.255V10.2549H7.255V9.25488H9.255V7.25488H10.255V9.25488H12.255V10.2549Z"/></svg>

<svg xmlns="http://www.w3.org/2000/svg" width="24" height="24" viewBox="0 0 24 24" fill='currentColor'><path d="M15.755 14.255h-.79l-.28-.27a6.47 6.47 0 0 0 1.57-4.23 6.5 6.5 0 1 0-6.5 6.5c1.61 0 3.09-.59 4.23-1.57l.27.28v.79l5 4.99 1.49-1.49zm-6 0c-2.49 0-4.5-2.01-4.5-4.5s2.01-4.5 4.5-4.5 4.5 2.01 4.5 4.5-2.01 4.5-4.5 4.5"/><path d="M12.255 10.255h-2v2h-1v-2h-2v-1h2v-2h1v2h2z"/></svg>
